Yosa-Max-Dark/places/16x16/folder-recent-symbolic.svg

<?xml version="1.0" encoding="UTF-8" standalone="no"?>
<svg
   xmlns:dc="http://purl.org/dc/elements/1.1/"
   xmlns:cc="http://creativecommons.org/ns#"
   xmlns:rdf="http://www.w3.org/1999/02/22-rdf-syntax-ns#"
   xmlns:svg="http://www.w3.org/2000/svg"
   xmlns="http://www.w3.org/2000/svg"
   xmlns:sodipodi="http://sodipodi.sourceforge.net/DTD/sodipodi-0.dtd"
   xmlns:inkscape="http://www.inkscape.org/namespaces/inkscape"
   id="svg11"
   version="1.1"
   viewBox="0 0 16 16"
   height="16px"
   width="16px"
   sodipodi:docname="folder-recent-symbolic.svg"
   inkscape:version="0.92.4 (unknown)">
  <sodipodi:namedview
     pagecolor="#ffffff"
     bordercolor="#666666"
     borderopacity="1"
     objecttolerance="10"
     gridtolerance="10"
     guidetolerance="10"
     inkscape:pageopacity="0"
     inkscape:pageshadow="2"
     inkscape:window-width="1366"
     inkscape:window-height="709"
     id="namedview9"
     showgrid="false"
     inkscape:snap-center="true"
     inkscape:zoom="11.247417"
     inkscape:cx="-4.8848285"
     inkscape:cy="5.1857951"
     inkscape:window-x="0"
     inkscape:window-y="0"
     inkscape:window-maximized="1"
     inkscape:current-layer="svg11" />
  <metadata
     id="metadata15">
    <rdf:RDF>
      <cc:Work
         rdf:about="">
        <dc:format>image/svg+xml</dc:format>
        <dc:type
           rdf:resource="http://purl.org/dc/dcmitype/StillImage" />
        <dc:title>folder-recent-symbolic</dc:title>
      </cc:Work>
    </rdf:RDF>
  </metadata>
  <!-- Generator: Sketch 42 (36781) - http://www.bohemiancoding.com/sketch -->
  <title
     id="title2">folder-recent-symbolic</title>
  <desc
     id="desc4">Created with Sketch.</desc>
  <defs
     id="defs6" />
  <path
     style="fill:#dfdfdf;fill-rule:nonzero;stroke:none;stroke-width:1.14285707"
     d="M 7.9824219 0.017578125 C 3.5641438 0.017578125 -0.017578125 3.5993 -0.017578125 8.0175781 C -0.017578125 12.435856 3.5641438 16.017578 7.9824219 16.017578 C 12.4007 16.017578 15.982422 12.435856 15.982422 8.0175781 C 15.982422 3.5993 12.4007 0.017578125 7.9824219 0.017578125 z M 8 3 L 9 3 L 9 8 L 9 9 L 8 9 L 4 9 L 4 8 L 8 8 L 8 3 z "
     id="path824" />
</svg>

<?xml version="1.0" encoding="UTF-8"?>
<svg id="svg11" version="1.1" viewBox="0 0 16 16" xmlns="http://www.w3.org/2000/svg">
 <title id="title2">folder-recent-symbolic</title>
 <desc id="desc4">Created with Sketch.</desc>
 <path id="path824" d="m7.9824219 0.017578125c-4.4182781 0-8 3.5817219-8 8 0 4.4182779 3.5817219 7.9999999 8 7.9999999s8.0000001-3.581722 8.0000001-7.9999999c0-4.4182781-3.581722-8-8.0000001-8zm0.0175781 2.9824219h1v5 1h-1-4v-1h4v-5z" style="fill:#dfdfdf"/>
</svg>
